X:1
T:Title
%%score 1 { 2 | ( 3 4 ) }
L:1/8
Q:1/4=108
M:4/4
K:F
V:1 treble nm="Grand Piano, Soprano"
V:2 bass nm="Choir Pad, JesusChristusUnserHeiland"
V:3 bass 
V:4 bass 
V:1
 [DG]4 [DG]4 | [DF]2 [DG]2 [FA]2 [EG]2 | [CF]4 [B,D]4 | [CF]2 [EG]2 [FA]4 | [DG]2 [D^F]2 [DG]4 | %5
w: By~Johann~Crüger,~1649 *|||||
 [DB]4 [DA]2 [B,G]2 | [DA]4 [DG]2 z [EG] | [DF]2 [EG]2 [FA]2 [EG]2 | [CF]4 [B,D]4 | [DG]4 [EG]4 | %10
w: |||||
 [FA]3 [EG] [DF]2 [^CE]2 | D8 |] %12
w: ||
V:2
 G,4 B,4 | A,2 B,2 C2 C2 | A,4 F,4 | A,2 B,2 C4 | B,2 A,2 =B,4 | G,4 ^F,2 G,2- | G,2 z2 =B,2 z C | %7
 A,2 B,2 C2 C2 | A,4 F,4 | B,4 C4 | C4 A,2 A,2 | ^F,8 |] %12
V:3
 z4 G,,4 | D,2 G,2 F,2 C,2 | F,,4 B,,4 | A,,2 G,,2 F,,4 | G,,2 D,2 G,,4 | z4 D,2 _E,2 | D,4 z4 | %7
 D,2 G,2 F,2 C,2 | F,,4 B,,4 | G,,4 C,4 | F,3 C, D,2 A,,2 | D,8 |] %12
V:4
 x8 | x8 | x8 | x8 | x8 | x8 | z2 ^F,2 G,,2 z C, | x8 | x8 | x8 | x8 | x8 |] %12

